src/components/00-materials/images-raw/Print.svg

<svg width="96" height="96" viewBox="0 0 96 96" fill="none" xmlns="http://www.w3.org/2000/svg">
<path d="M25 71H19C17.4087 71 15.8826 70.3679 14.7574 69.2426C13.6321 68.1174 13 66.5913 13 65V43C13 41.4087 13.6321 39.8826 14.7574 38.7574C15.8826 37.6321 17.4087 37 19 37H77C78.5913 37 80.1174 37.6321 81.2426 38.7574C82.3679 39.8826 83 41.4087 83 43V65C83 66.5913 82.3679 68.1174 81.2426 69.2426C80.1174 70.3679 78.5913 71 77 71H71" stroke="#00008F" stroke-width="2" stroke-linecap="round" stroke-linejoin="round"/>
<path d="M20 43H28M71 58V77C71 77.5304 70.7893 78.0391 70.4142 78.4142C70.0391 78.7893 69.5304 79 69 79H27C26.4696 79 25.9609 78.7893 25.5858 78.4142C25.2107 78.0391 25 77.5304 25 77V58H71ZM21 58H75H21Z" stroke="#00008F" stroke-width="2" stroke-linecap="round" stroke-linejoin="round"/>
<path d="M51.5 51C52.8807 51 54 49.8807 54 48.5C54 47.1193 52.8807 46 51.5 46C50.1193 46 49 47.1193 49 48.5C49 49.8807 50.1193 51 51.5 51Z" stroke="#00008F" stroke-width="2" stroke-linecap="round" stroke-linejoin="round"/>
<path d="M61.5 51C62.8807 51 64 49.8807 64 48.5C64 47.1193 62.8807 46 61.5 46C60.1193 46 59 47.1193 59 48.5C59 49.8807 60.1193 51 61.5 51Z" stroke="#00008F" stroke-width="2" stroke-linecap="round" stroke-linejoin="round"/>
<path d="M71.5 51C72.8807 51 74 49.8807 74 48.5C74 47.1193 72.8807 46 71.5 46C70.1193 46 69 47.1193 69 48.5C69 49.8807 70.1193 51 71.5 51Z" stroke="#00008F" stroke-width="2" stroke-linecap="round" stroke-linejoin="round"/>
<path d="M61 17L71 27M33 65H63H33ZM33 70H48H33ZM71 37V27H63C62.4696 27 61.9609 26.7893 61.5858 26.4142C61.2107 26.0391 61 25.5304 61 25V17H27C26.4696 17 25.9609 17.2107 25.5858 17.5858C25.2107 17.9609 25 18.4696 25 19V37H71Z" stroke="#00008F" stroke-width="2" stroke-linecap="round" stroke-linejoin="round"/>
</svg>

<svg width="96" height="96" viewBox="0 0 96 96" fill="none" xmlns="http://www.w3.org/2000/svg"><path d="M25 71h-6a6 6 0 01-6-6V43a6 6 0 016-6h58a6 6 0 016 6v22a6 6 0 01-6 6h-6" stroke="#00008F" stroke-width="2" stroke-linecap="round" stroke-linejoin="round"/><path d="M20 43h8m43 15v19a2 2 0 01-2 2H27a2 2 0 01-2-2V58h46zm-50 0h54-54zM51.5 51a2.5 2.5 0 100-5 2.5 2.5 0 000 5zM61.5 51a2.5 2.5 0 100-5 2.5 2.5 0 000 5zM71.5 51a2.5 2.5 0 100-5 2.5 2.5 0 000 5zM61 17l10 10M33 65h30-30zm0 5h15-15zm38-33V27h-8a2 2 0 01-2-2v-8H27a2 2 0 00-2 2v18h46z" stroke="#00008F" stroke-width="2" stroke-linecap="round" stroke-linejoin="round"/></svg>
